svg/sign_direction_minus.svg

<svg xmlns="http://www.w3.org/2000/svg" viewBox="0 0 24 24"><path d="M20.5 9.5 18 12h-5v10H9a2 2 0 0 1 2-2v-8H3.5L6 9.5 3.5 7H11V3l1-1 1 1v4h5m5 11h-8v2h8Z"/></svg>

<?xml version="1.0" encoding="UTF-8"?><!DOCTYPE svg PUBLIC "-//W3C//DTD SVG 1.1//EN" "http://www.w3.org/Graphics/SVG/1.1/DTD/svg11.dtd"><svg xmlns="http://www.w3.org/2000/svg" xmlns:xlink="http://www.w3.org/1999/xlink" version="1.1" id="mdi-sign-direction-minus" width="24" height="24" viewBox="0 0 24 24"><path d="M20.5 9.5L18 12H13V22H9A2 2 0 0 1 11 20V12H3.5L6 9.5L3.5 7H11V3L12 2L13 3V7H18M23 18H15V20H23Z" /></svg>
